X:1
T:Sgt. O'Leary
B:Company of Fifers and Drummers, Vol 2
M:6/8
L:1/8
Q:1/8=300
K:D
|: (3A/B/c/|d2d def|d2d def|eAA Acd|eAA ABc|
d2d def|d2d def|eAA ABc|ddf dz :|
|: f|a2fa2f|d2d dfg|b2gb2g|e2e e2f|
a2fa2f|d2d def|eAA ABc|ddf d2 :|
